img/logo.svg

<svg width="196" height="24" viewBox="0 0 196 24" fill="none" xmlns="http://www.w3.org/2000/svg">
<path fill-rule="evenodd" clip-rule="evenodd" d="M92.972 21.384C94.4119 21.384 95.6719 21.146 96.7519 20.67C97.832 20.194 98.674 19.504 99.278 18.6C99.882 17.696 100.184 16.612 100.184 15.348C100.184 14.484 100.042 13.74 99.7579 13.116C99.4739 12.492 99.0639 11.946 98.528 11.478C97.992 11.01 97.3479 10.584 96.5959 10.2C95.8439 9.81597 95.0039 9.42797 94.076 9.03597C93.644 8.85997 93.2479 8.69397 92.888 8.53797C92.528 8.38197 92.2199 8.21797 91.964 8.04597C91.708 7.87397 91.5099 7.66997 91.3699 7.43397C91.2299 7.19797 91.16 6.91197 91.16 6.57597C91.16 6.16797 91.2659 5.79797 91.478 5.46597C91.6899 5.13397 91.9939 4.86797 92.3899 4.66797C92.7859 4.46797 93.2679 4.36797 93.8359 4.36797C94.34 4.36797 94.8379 4.43997 95.3299 4.58397C95.8219 4.72797 96.2859 4.91797 96.722 5.15397C97.158 5.38997 97.548 5.65597 97.8919 5.95197L99.5119 2.90397C99.0799 2.53597 98.5519 2.19597 97.9279 1.88397C97.304 1.57197 96.632 1.31997 95.9119 1.12797C95.1919 0.935966 94.472 0.839966 93.7519 0.839966C92.792 0.839966 91.922 0.999966 91.1419 1.31997C90.3619 1.63997 89.6899 2.07197 89.1259 2.61597C88.562 3.15997 88.1279 3.77997 87.8239 4.47597C87.52 5.17197 87.368 5.89997 87.368 6.65997C87.368 7.29997 87.478 7.87797 87.6979 8.39397C87.9179 8.90997 88.216 9.37197 88.5919 9.77997C88.9679 10.188 89.3979 10.546 89.882 10.854C90.3659 11.162 90.8759 11.436 91.4119 11.676C92.132 11.988 92.7739 12.274 93.3379 12.534C93.902 12.794 94.3779 13.058 94.7659 13.326C95.1539 13.594 95.4479 13.894 95.6479 14.226C95.8479 14.558 95.9479 14.96 95.9479 15.432C95.9479 15.952 95.8239 16.386 95.576 16.734C95.3279 17.082 94.9899 17.344 94.562 17.52C94.1339 17.696 93.6399 17.784 93.0799 17.784C92.4799 17.784 91.9139 17.698 91.382 17.526C90.8499 17.354 90.3559 17.138 89.8999 16.878C89.444 16.618 89.0319 16.344 88.6639 16.056C88.2959 15.768 87.9799 15.508 87.716 15.276L85.7239 18.492C85.9799 18.74 86.3279 19.028 86.7679 19.356C87.208 19.684 87.7339 20.002 88.346 20.31C88.958 20.618 89.652 20.874 90.4279 21.078C91.2039 21.282 92.0519 21.384 92.972 21.384ZM48.136 21C49.544 21 50.854 20.75 52.066 20.25C53.278 19.75 54.338 19.05 55.246 18.15C56.154 17.25 56.86 16.202 57.364 15.006C57.868 13.81 58.12 12.512 58.12 11.112C58.12 9.71997 57.866 8.42397 57.358 7.22397C56.85 6.02397 56.142 4.97197 55.234 4.06797C54.326 3.16397 53.268 2.45997 52.06 1.95597C50.852 1.45197 49.544 1.19997 48.136 1.19997H42.7V21H48.136ZM47.704 17.52H46.588V4.67997H47.704C48.6 4.67997 49.428 4.83997 50.188 5.15997C50.948 5.47997 51.608 5.92997 52.168 6.50997C52.728 7.08997 53.164 7.76997 53.476 8.54997C53.788 9.32997 53.944 10.18 53.944 11.1C53.944 12.028 53.788 12.882 53.476 13.662C53.164 14.442 52.728 15.12 52.168 15.696C51.608 16.272 50.948 16.72 50.188 17.04C49.428 17.36 48.6 17.52 47.704 17.52ZM78.06 17.592V21H67.044V1.19997H78.06V4.60797H70.932V9.37197H77.7719V12.78H70.932V17.592H78.06ZM109.168 1.19997H113.056V21H109.168V1.19997ZM131.748 21.384C132.916 21.384 134.044 21.186 135.132 20.79C136.22 20.394 137.196 19.834 138.06 19.11C138.924 18.386 139.606 17.526 140.106 16.53C140.606 15.534 140.856 14.432 140.856 13.224V10.224H131.7V13.236H136.896V13.536C136.896 14.152 136.76 14.72 136.488 15.24C136.216 15.76 135.848 16.212 135.384 16.596C134.92 16.98 134.39 17.278 133.794 17.49C133.198 17.702 132.58 17.808 131.94 17.808C131.14 17.808 130.394 17.644 129.702 17.316C129.01 16.988 128.406 16.52 127.89 15.912C127.374 15.304 126.972 14.58 126.684 13.74C126.396 12.9 126.252 11.964 126.252 10.932C126.252 9.98797 126.38 9.11397 126.636 8.30997C126.892 7.50597 127.268 6.80397 127.764 6.20397C128.26 5.60397 128.87 5.13797 129.594 4.80597C130.318 4.47397 131.152 4.30797 132.096 4.30797C133.056 4.30797 134.03 4.48597 135.018 4.84197C136.006 5.19797 136.848 5.69997 137.544 6.34797L139.368 3.33597C138.72 2.79997 137.992 2.34597 137.184 1.97397C136.376 1.60197 135.534 1.31997 134.658 1.12797C133.782 0.935966 132.912 0.839966 132.048 0.839966C130.52 0.839966 129.14 1.10997 127.908 1.64997C126.676 2.18997 125.624 2.93397 124.752 3.88197C123.88 4.82997 123.212 5.92197 122.748 7.15797C122.284 8.39397 122.052 9.70797 122.052 11.1C122.052 12.556 122.3 13.908 122.796 15.156C123.292 16.404 123.98 17.494 124.86 18.426C125.74 19.358 126.768 20.084 127.944 20.604C129.12 21.124 130.388 21.384 131.748 21.384ZM153.668 7.67997V21H149.78V1.19997H153.668L162.2 14.52V1.19997H166.088V21H162.2L153.668 7.67997ZM185.032 21.384C186.416 21.384 187.712 21.12 188.92 20.592C190.128 20.064 191.188 19.33 192.1 18.39C193.012 17.45 193.726 16.358 194.242 15.114C194.758 13.87 195.016 12.536 195.016 11.112C195.016 9.68797 194.758 8.35397 194.242 7.10997C193.726 5.86597 193.012 4.77397 192.1 3.83397C191.188 2.89397 190.128 2.15997 188.92 1.63197C187.712 1.10397 186.416 0.839966 185.032 0.839966C183.648 0.839966 182.352 1.10397 181.144 1.63197C179.936 2.15997 178.876 2.89397 177.964 3.83397C177.052 4.77397 176.338 5.86597 175.822 7.10997C175.306 8.35397 175.048 9.68797 175.048 11.112C175.048 12.536 175.306 13.87 175.822 15.114C176.338 16.358 177.052 17.45 177.964 18.39C178.876 19.33 179.936 20.064 181.144 20.592C182.352 21.12 183.648 21.384 185.032 21.384ZM182.71 17.16C183.418 17.48 184.188 17.64 185.02 17.64C185.868 17.64 186.644 17.48 187.348 17.16C188.052 16.84 188.664 16.388 189.184 15.804C189.704 15.22 190.108 14.53 190.396 13.734C190.684 12.938 190.828 12.064 190.828 11.112C190.828 10.16 190.684 9.28597 190.396 8.48997C190.108 7.69397 189.704 7.00397 189.184 6.41997C188.664 5.83597 188.052 5.38397 187.348 5.06397C186.644 4.74397 185.868 4.58397 185.02 4.58397C184.188 4.58397 183.418 4.74397 182.71 5.06397C182.002 5.38397 181.388 5.83597 180.868 6.41997C180.348 7.00397 179.946 7.69397 179.662 8.48997C179.378 9.28597 179.236 10.16 179.236 11.112C179.236 12.064 179.378 12.938 179.662 13.734C179.946 14.53 180.348 15.22 180.868 15.804C181.388 16.388 182.002 16.84 182.71 17.16Z" fill="#333136"/>
<circle r="12" transform="matrix(0 -1 -1 0 12 12)" fill="url(#paint0_angular)"/>
<defs>
<radialGradient id="paint0_angular" cx="0" cy="0" r="1" gradientUnits="userSpaceOnUse" gradientTransform="translate(12 12) scale(12)">
<stop stop-color="#E7816B" stop-opacity="0.01"/>
<stop offset="0.999287" stop-color="#E7816B"/>
</radialGradient>
</defs>
</svg>

<svg width="196" height="24" fill="none" xmlns="http://www.w3.org/2000/svg"><path fill-rule="evenodd" clip-rule="evenodd" d="M92.972 21.384c1.44 0 2.7-.238 3.78-.714 1.08-.476 1.922-1.166 2.526-2.07.604-.904.906-1.988.906-3.252 0-.864-.142-1.608-.426-2.232a4.794 4.794 0 00-1.23-1.638 9.471 9.471 0 00-1.932-1.278 38.542 38.542 0 00-2.52-1.164 58.554 58.554 0 01-1.188-.498 5.784 5.784 0 01-.924-.492 1.92 1.92 0 01-.594-.612c-.14-.236-.21-.522-.21-.858 0-.408.106-.778.318-1.11.212-.332.516-.598.912-.798.396-.2.878-.3 1.446-.3.504 0 1.002.072 1.494.216.492.144.956.334 1.392.57.436.236.826.502 1.17.798l1.62-3.048a7.84 7.84 0 00-1.584-1.02 10.599 10.599 0 00-2.016-.756 8.351 8.351 0 00-2.16-.288c-.96 0-1.83.16-2.61.48-.78.32-1.452.752-2.016 1.296a5.782 5.782 0 00-1.302 1.86 5.4 5.4 0 00-.456 2.184c0 .64.11 1.218.33 1.734.22.516.518.978.894 1.386.376.408.806.766 1.29 1.074.484.308.994.582 1.53.822.72.312 1.362.598 1.926.858a9.59 9.59 0 011.428.792c.388.268.682.568.882.9.2.332.3.734.3 1.206 0 .52-.124.954-.372 1.302-.248.348-.586.61-1.014.786-.428.176-.922.264-1.482.264-.6 0-1.166-.086-1.698-.258a7.868 7.868 0 01-1.482-.648c-.456-.26-.868-.534-1.236-.822a21.826 21.826 0 01-.948-.78l-1.992 3.216a10.88 10.88 0 002.622 1.818 10.65 10.65 0 002.082.768 9.99 9.99 0 002.544.306zM48.136 21c1.408 0 2.718-.25 3.93-.75a9.75 9.75 0 003.18-2.1 9.666 9.666 0 002.118-3.144c.504-1.196.756-2.494.756-3.894 0-1.392-.254-2.688-.762-3.888a9.797 9.797 0 00-5.298-5.268c-1.208-.504-2.516-.756-3.924-.756H42.7V21h5.436zm-.432-3.48h-1.116V4.68h1.116c.896 0 1.724.16 2.484.48.76.32 1.42.77 1.98 1.35.56.58.996 1.26 1.308 2.04.312.78.468 1.63.468 2.55 0 .928-.156 1.782-.468 2.562a6.171 6.171 0 01-1.308 2.034 5.95 5.95 0 01-1.98 1.344c-.76.32-1.588.48-2.484.48zm30.356.072V21H67.044V1.2H78.06v3.408h-7.128v4.764h6.84v3.408h-6.84v4.812h7.128zM109.168 1.2h3.888V21h-3.888V1.2zm22.58 20.184a9.818 9.818 0 003.384-.594 9.667 9.667 0 002.928-1.68 8.042 8.042 0 002.046-2.58c.5-.996.75-2.098.75-3.306v-3H131.7v3.012h5.196v.3a3.62 3.62 0 01-.408 1.704c-.272.52-.64.972-1.104 1.356a5.207 5.207 0 01-1.59.894 5.491 5.491 0 01-1.854.318c-.8 0-1.546-.164-2.238-.492a5.383 5.383 0 01-1.812-1.404c-.516-.608-.918-1.332-1.206-2.172-.288-.84-.432-1.776-.432-2.808a8.6 8.6 0 01.384-2.622 6.235 6.235 0 011.128-2.106 5.097 5.097 0 011.83-1.398c.724-.332 1.558-.498 2.502-.498.96 0 1.934.178 2.922.534.988.356 1.83.858 2.526 1.506l1.824-3.012a9.906 9.906 0 00-2.184-1.362 12.338 12.338 0 00-2.526-.846 12.161 12.161 0 00-2.61-.288c-1.528 0-2.908.27-4.14.81a9.307 9.307 0 00-3.156 2.232 9.958 9.958 0 00-2.004 3.276 11.123 11.123 0 00-.696 3.942c0 1.456.248 2.808.744 4.056a10.193 10.193 0 002.064 3.27 9.462 9.462 0 003.084 2.178c1.176.52 2.444.78 3.804.78zm21.92-13.704V21h-3.888V1.2h3.888l8.532 13.32V1.2h3.888V21H162.2l-8.532-13.32zm31.364 13.704a9.6 9.6 0 003.888-.792 9.927 9.927 0 003.18-2.202 10.351 10.351 0 002.916-7.278 10.351 10.351 0 00-2.916-7.278 9.927 9.927 0 00-3.18-2.202 9.6 9.6 0 00-3.888-.792 9.6 9.6 0 00-3.888.792 9.927 9.927 0 00-3.18 2.202 10.351 10.351 0 00-2.916 7.278 10.351 10.351 0 002.916 7.278 9.927 9.927 0 003.18 2.202 9.6 9.6 0 003.888.792zm-2.322-4.224c.708.32 1.478.48 2.31.48.848 0 1.624-.16 2.328-.48a5.459 5.459 0 001.836-1.356 6.296 6.296 0 001.212-2.07c.288-.796.432-1.67.432-2.622s-.144-1.826-.432-2.622a6.296 6.296 0 00-1.212-2.07 5.459 5.459 0 00-1.836-1.356c-.704-.32-1.48-.48-2.328-.48-.832 0-1.602.16-2.31.48a5.442 5.442 0 00-1.842 1.356 6.214 6.214 0 00-1.206 2.07c-.284.796-.426 1.67-.426 2.622s.142 1.826.426 2.622a6.214 6.214 0 001.206 2.07 5.442 5.442 0 001.842 1.356z" fill="#333136"/><circle r="12" transform="matrix(0 -1 -1 0 12 12)" fill="url(#paint0_angular)"/><defs><radialGradient id="paint0_angular" cx="0" cy="0" r="1" gradientUnits="userSpaceOnUse" gradientTransform="matrix(12 0 0 12 12 12)"><stop stop-color="#E7816B" stop-opacity=".01"/><stop offset=".999" stop-color="#E7816B"/></radialGradient></defs></svg>
